app/dist/common/images/estore.svg

<svg height="18" viewBox="0 0 18 18" width="18" xmlns="http://www.w3.org/2000/svg"><path d="m0 0h18v18h-18z" fill="#f0f3fa"/><path d="m5 12v2h6.61l.39-2zm7.61-6h-6.61l.39-2h6.61zm-.61 1h-4.58l-.42 2h4.58zm-.5 2.5h-4.17l-.33 2h4.17z" fill="#2a225e"/></svg>

<!-- by TradingView --><svg width="18" height="18" viewBox="0 0 18 18" xmlns="http://www.w3.org/2000/svg"><path fill="#F0F3FA" d="M0 0h18v18H0z"/><path d="M5 12v2h6.61l.39-2H5ZM12.61 6H6l.39-2H13l-.39 2ZM12 7H7.42L7 9h4.58L12 7ZM11.5 9.5H7.33l-.33 2h4.17l.33-2Z" fill="#2A225E"/></svg>
